!!!OTL: 169. Joseph in Aegypten, / Aus der Oper Joseph (= Jakob und seine Soehne) von Mehul. 1807.
!!!COM: Mehul
!!!ODT: 1807
!!!ARE: Europa, Mitteleuropa, Deutschland
!!!SCT: B0169
!!!TXL: @@DE
!!!YEM: Copyright 1995, estate of Helmut Schaffrath.
**kern	**text
*ICvox	*
*Ivox	*
*M4/4	*
*met(c)	*
*clefG2	*
*k[]	*
*C:	*
!LO:TX:a:t=Langſam. 	!
{8g	Jch
8cc	war
=1	=1
4.ee	Jüngling
8dd	.
8ddL	noch
8ccJ	.
8ccL	bei
8bJ	.
=2	=2
(4.b/	Jah-
8a)	.
4a}	-ren,
{8dd	vier-
8dd	-ʒehn
=3	=3
4.cc	ʒähl-
8cc	-te
(<4b	kaum
16ccqqL	.
16bqqJ	.
8a\)	.
8b	ich
=4	=4
2cc	nur,
4r}	.
{8g	und
8cc	ich
=5	=5
4.ee	träum-
8dd	-te
8ddL	nicht
8ccJ	.
8ccL	Ge-
8bJ	.
=6	=6
(4.b/	-fah-
8a)	.
4a}	-ren,
{8dd	folg-
8dd	-te
=7	=7
4.cc	mei-
8cc	-ner
(<4b	Brü-
16ccqqL	.
16bqqJ	.
8a\)	.
8b	-der
=8	=8
2cc	Spur.
4r}	.
{8a	Si-
8a	-chem
=9	=9
4.dd	gab
8dd	uns
4cc#	fet-
8ddL	-te
8eeJ	.
=10	=10
(4.ff	Wei-
8ee)	.
4dd}	-de,
{8dd	ſie
8dd	ge-
=11	=11
4.cc	-hör-
8dd	-te
4cc	un-
4cc	-ſerm
=12	=12
2.dd;}	Stamm
{8g	niemand
8g	.
=13	=13
4cc	that
4dd	ich
4ee	was
4dd	ʒu
=14	=14
(4.cc	Lei-
8b)	.
4cc}	-de
{8cc#	und
8cc#	war
=15	=15
4.dd	ſchüchtern
8dd	.
4ccn	wie
4b	ein
=16	=16
2.dd}	Lamm.
{8g	niemand
8g	.
=17	=17
4cc	that
4dd	ich
4ee	was
4dd	ʒu
=18	=18
(4.cc	Lei-
8b)	.
4cc}	-de
{8cc#	und
8cc#	war
=19	=19
4.dd	ſchüchtern
8dd	.
4ccn	wie
4b	ein
=20	=20
2cc	Lamm.
4r}	.
==	==
!!!AGN: Ballade, Romanze
!!!GTL: Balladen und Romanzen
!!!ONB: ESAC (Essen Associative Code) Database: BOEHME
!!!AMT: simple quadruple
!!!AIN: vox
!!!EED: Helmut Schaffrath
!!!EEV: 1.0
!!!RDF**kern: < = below
!!@@COMMENT:"War bis in die neue Ʒeit ſehr beliebt und iſt noch in allen Taſchenliederbüchern ʒu finden.
!!Der franʒöſiſche Text beginnt:
!!A peine au sortir de Penfance
!!Quatorʒe ans au plus je comptais."
!!@@END:
!!!URL-scan: https://archive.org/details/BoehmeVtLieder1895/page/n169/mode/2up
!!!ENC: Anna Maria Matuszewska
!!!EEV: 2024/19/06
*-	*-
